X: 303
U:~=!turn!
M:C|
L:1/8
K:F
c | Tfcfg (f/g/a) (gf) | ecgc acgc | Tfcfg (f/g/a) (gf) | cfeg f/f/f T(fc) |
fcfg (f/g/a) (gf) | Tgfga baga | TfdcB {/B}A2 (fd) | cABG F/F/F TF |]


